icons/1_Primary/Meta.svg

<svg width="1024" height="1024" fill="none" xmlns="http://www.w3.org/2000/svg"><g clip-path="url(#a)"><path d="M512 1024c282.77 0 512-229.23 512-512S794.77 0 512 0 0 229.23 0 512s229.23 512 512 512Z" fill="#728DBE"/><path d="M634.78 314.6c-46.25 0-82.4 34.83-115.12 79.08-45-57.26-82.58-79.08-127.59-79.08C300.31 314.6 230 434 230 560.42c0 79.09 38.26 129 102.36 129 46.13 0 79.31-21.75 138.29-124.85 0 0 24.59-43.42 41.5-73.32a1907.185 1907.185 0 0 1 18.73 30.93l27.66 46.53c53.86 90.13 83.88 120.69 138.27 120.69 62.44 0 97.19-50.57 97.19-131.31 0-132.34-71.89-243.49-159.22-243.49Zm-209.11 222c-47.82 75-64.36 91.76-91 91.76-27.4 0-43.68-24.05-43.68-66.95 0-91.76 45.75-185.59 100.29-185.59 29.53 0 54.22 17.06 92 71.18-35.87 55.1-57.61 89.64-57.61 89.64v-.04Zm180.47-9.44L573.07 472c-8.947-14.553-17.547-27.95-25.8-40.19 29.8-46 54.39-68.92 83.63-68.92 60.74 0 109.34 89.43 109.34 199.29 0 41.87-13.72 66.17-42.13 66.17-27.24.05-40.25-17.94-91.97-101.15v-.04Z" fill="#fff"/></g><defs><clipPath id="a"><path fill="#fff" d="M0 0h1024v1024H0z"/></clipPath></defs></svg>

<svg width="1024" height="1024" viewBox="0 0 1024 1024" fill="none" xmlns="http://www.w3.org/2000/svg">
<g clip-path="url(#clip0_2_2799)">
<path d="M512 1024C794.77 1024 1024 794.77 1024 512C1024 229.23 794.77 0 512 0C229.23 0 0 229.23 0 512C0 794.77 229.23 1024 512 1024Z" fill="#728DBE"/>
<path d="M634.78 314.6C588.53 314.6 552.38 349.43 519.66 393.68C474.66 336.42 437.08 314.6 392.07 314.6C300.31 314.6 230 434 230 560.42C230 639.51 268.26 689.42 332.36 689.42C378.49 689.42 411.67 667.67 470.65 564.57C470.65 564.57 495.24 521.15 512.15 491.25C518.077 500.817 524.32 511.127 530.88 522.18L558.54 568.71C612.4 658.84 642.42 689.4 696.81 689.4C759.25 689.4 794 638.83 794 558.09C794 425.75 722.11 314.6 634.78 314.6ZM425.67 536.6C377.85 611.6 361.31 628.36 334.67 628.36C307.27 628.36 290.99 604.31 290.99 561.41C290.99 469.65 336.74 375.82 391.28 375.82C420.81 375.82 445.5 392.88 483.28 447C447.41 502.1 425.67 536.64 425.67 536.64V536.6ZM606.14 527.16L573.07 472C564.123 457.447 555.523 444.05 547.27 431.81C577.07 385.81 601.66 362.89 630.9 362.89C691.64 362.89 740.24 452.32 740.24 562.18C740.24 604.05 726.52 628.35 698.11 628.35C670.87 628.4 657.86 610.41 606.14 527.2V527.16Z" fill="white"/>
</g>
<defs>
<clipPath id="clip0_2_2799">
<rect width="1024" height="1024" fill="white"/>
</clipPath>
</defs>
</svg>
